localPackages/DesignSystem/Sources/DesignSystem/Resources/Assets.xcassets/IconSet/ic-user-plus.imageset/ic-user-plus.svg

<svg width="24" height="24" viewBox="0 0 24 24" fill="none" xmlns="http://www.w3.org/2000/svg">
<g id="ic-user-plus">
<path id="Icon" fill-rule="evenodd" clip-rule="evenodd" d="M16.5 7.5C16.5 9.15685 15.1569 10.5 13.5 10.5C11.8431 10.5 10.5 9.15685 10.5 7.5C10.5 5.84315 11.8431 4.5 13.5 4.5C15.1569 4.5 16.5 5.84315 16.5 7.5ZM18 7.5C18 9.98528 15.9853 12 13.5 12C11.0147 12 9 9.98528 9 7.5C9 5.01472 11.0147 3 13.5 3C15.9853 3 18 5.01472 18 7.5ZM7.28323 16.4706C7.8379 15.5688 8.85016 15 9.96117 15H17.0388C18.1498 15 19.1621 15.5688 19.7168 16.4706L20.8901 18.3782C21.1631 18.8222 20.8762 19.5 20.1899 19.5H6.81006C6.12384 19.5 5.83686 18.8222 6.10992 18.3782L7.28323 16.4706ZM6.00556 15.6848C6.83924 14.3293 8.3408 13.5 9.96117 13.5H17.0388C18.6592 13.5 20.1608 14.3293 20.9944 15.6848L22.1677 17.5924C23.0901 19.0921 21.9828 21 20.1899 21H6.81006C5.01723 21 3.90985 19.0921 4.83225 17.5924L6.00556 15.6848ZM3.75 9V7.5C3.75 7.08579 4.08579 6.75 4.5 6.75C4.91421 6.75 5.25 7.08579 5.25 7.5V9H6.75C7.16421 9 7.5 9.33579 7.5 9.75C7.5 10.1642 7.16421 10.5 6.75 10.5H5.25V12C5.25 12.4142 4.91421 12.75 4.5 12.75C4.08579 12.75 3.75 12.4142 3.75 12V10.5H2.25C1.83579 10.5 1.5 10.1642 1.5 9.75C1.5 9.33579 1.83579 9 2.25 9H3.75Z" fill="#0F0F0F"/>
</g>
</svg>

<svg xmlns="http://www.w3.org/2000/svg" width="24" height="24" viewBox="0 0 24 24">
  <g class="ic-user-plus">
    <path fill-rule="evenodd" d="M16.5 7.5a3 3 0 1 1-6 0 3 3 0 0 1 6 0Zm1.5 0a4.5 4.5 0 1 1-9 0 4.5 4.5 0 0 1 9 0ZM7.283 16.47A3.138 3.138 0 0 1 9.961 15h7.078c1.11 0 2.123.569 2.678 1.47l1.173 1.908c.273.444-.014 1.122-.7 1.122H6.81c-.686 0-.973-.678-.7-1.122l1.173-1.907Zm-1.277-.785C6.839 14.329 8.34 13.5 9.96 13.5h7.078c1.62 0 3.122.83 3.955 2.185l1.174 1.907c.922 1.5-.185 3.408-1.978 3.408H6.81c-1.793 0-2.9-1.908-1.978-3.408l1.174-1.907ZM3.75 9V7.5a.75.75 0 0 1 1.5 0V9h1.5a.75.75 0 0 1 0 1.5h-1.5V12a.75.75 0 0 1-1.5 0v-1.5h-1.5a.75.75 0 0 1 0-1.5h1.5Z" class="Icon"/>
  </g>
</svg>
